assets/img/braze_icons/coins-stacked-02.svg

<svg fill="none" height="24" viewBox="0 0 24 24" width="24" xmlns="http://www.w3.org/2000/svg"><g fill="#801ed7"><path clip-rule="evenodd" d="m7.5 2c-1.60403 0-3.1.23478-4.23083.64599-.03508.01276-.07002.02576-.10479.03901-.52161.19875-1.0063.45343-1.38409.77822-.39972.34366-.78029.85953-.78029 1.53678v1.5c0 .67725.38057 1.19312.78029 1.53678.40297.34644.92758.61312 1.48888.81723 1.13083.41121 2.6268.64599 4.23083.64599s3.1-.23478 4.2308-.64599c.5613-.20411 1.0859-.47079 1.4889-.81723.3997-.34366.7803-.85953.7803-1.53678v-1.5c0-.67725-.3806-1.19312-.7803-1.53678-.403-.34644-.9276-.61312-1.4889-.81723-1.1308-.41121-2.62677-.64599-4.2308-.64599z" fill-rule="evenodd"/><path clip-rule="evenodd" d="m14 8.20236c-.6356.10836-1.2204.25802-1.7308.44363-.5613.20411-1.0859.47079-1.4889.81723-.3997.34366-.7803.85958-.7803 1.53678 0 .1014.0085.1993.0244.2935-.77904.1343-1.63511.2065-2.5244.2065-1.60403 0-3.1-.2348-4.23083-.646-.58082-.2112-1.11571-.4829-1.53083-.854-.15573-.13921-.2813-.28238-.38226-.41823-.03757-.05054-.09613-.08177-.1591-.08177-.10786 0-.19435.08908-.19238.19693.01097.60047-.0046 1.20287-.0046 1.80307 0 .6772.38057 1.1931.78029 1.5368.40297.3464.92758.6131 1.48888.8172 1.13083.4112 2.6268.646 4.23083.646.8548 0 1.67891-.0667 2.43343-.1912.02352-.0039.03528-.0058.04421-.0117.00784-.0052.01412-.0126.01797-.0212.00439-.0098.00439-.0218.00439-.0458v-.3785c0-.0561.0455-.1016.1016-.1016.0396 0 .0754.0231.0933.0585.1482.2944.3639.5378.5854.7283.403.3464.9276.6131 1.4889.8172 1.1308.4112 2.6268.646 4.2308.646s3.1-.2348 4.2308-.646c.5613-.2041 1.0859-.4708 1.4889-.8172.3997-.3437.7803-.8596.7803-1.5368v-2c0-.6772-.3806-1.19312-.7803-1.53678-.403-.34644-.9276-.61312-1.4889-.81723-1.1308-.41121-2.6268-.64599-4.2308-.64599-.88 0-1.7275.07067-2.5.20236z" fill-rule="evenodd"/><path d="m22.8026 16c-.067 0-.1289.0343-.1679.0887-.1238.1723-.2681.3218-.415.4481-.403.3464-.9276.6131-1.4889.8172-1.1308.4112-2.6268.646-4.2308.646s-3.1-.2348-4.2308-.646c-.5613-.2041-1.0859-.4708-1.4889-.8172-.1469-.1263-.2912-.2758-.415-.4481-.039-.0544-.1009-.0887-.1679-.0887-.109 0-.1974.0884-.1974.1974v.1002c-.77251.1317-1.61999.2024-2.5.2024-1.60403 0-3.1-.2348-4.23083-.646-.5613-.2041-1.08591-.4708-1.48888-.8172-.14688-.1263-.29118-.2758-.41496-.4481-.03908-.0544-.10097-.0887-.16793-.0887-.10902 0-.1974.0884-.1974.1974v2.3026c0 .6772.38057 1.1931.78029 1.5368.40297.3464.92758.6131 1.48888.8172 1.13083.4112 2.6268.646 4.23083.646.94931 0 1.85799-.0822 2.6744-.2334.1484.3133.3739.5708.6059.7702.403.3464.9276.6131 1.4889.8172 1.1308.4112 2.6268.646 4.2308.646s3.1-.2348 4.2308-.646c.5613-.2041 1.0859-.4708 1.4889-.8172.3997-.3437.7803-.8596.7803-1.5368v-2.8026c0-.109-.0884-.1974-.1974-.1974z"/></g></svg>

<svg width="24" height="24" viewBox="0 0 24 24" fill="none" xmlns="http://www.w3.org/2000/svg">
<path fill-rule="evenodd" clip-rule="evenodd" d="M7.5 2C5.89597 2 4.4 2.23478 3.26917 2.64599C3.23409 2.65875 3.19915 2.67175 3.16438 2.685C2.64277 2.88375 2.15808 3.13843 1.78029 3.46322C1.38057 3.80688 1 4.32275 1 5V6.5C1 7.17725 1.38057 7.69312 1.78029 8.03678C2.18326 8.38322 2.70787 8.6499 3.26917 8.85401C4.4 9.26522 5.89597 9.5 7.5 9.5C9.10403 9.5 10.6 9.26522 11.7308 8.85401C12.2921 8.6499 12.8167 8.38322 13.2197 8.03678C13.6194 7.69312 14 7.17725 14 6.5V5C14 4.32275 13.6194 3.80688 13.2197 3.46322C12.8167 3.11678 12.2921 2.8501 11.7308 2.64599C10.6 2.23478 9.10403 2 7.5 2Z" fill="#801ED7"/>
<path fill-rule="evenodd" clip-rule="evenodd" d="M14 8.20236C13.3644 8.31072 12.7796 8.46038 12.2692 8.64599C11.7079 8.8501 11.1833 9.11678 10.7803 9.46322C10.3806 9.80688 10 10.3228 10 11C10 11.1014 10.0085 11.1993 10.0244 11.2935C9.24536 11.4278 8.38929 11.5 7.5 11.5C5.89597 11.5 4.4 11.2652 3.26917 10.854C2.68835 10.6428 2.15346 10.3711 1.73834 10C1.58261 9.86079 1.45704 9.71762 1.35608 9.58177C1.31851 9.53123 1.25995 9.5 1.19698 9.5C1.08912 9.5 1.00263 9.58908 1.0046 9.69693C1.01557 10.2974 1 10.8998 1 11.5C1 12.1772 1.38057 12.6931 1.78029 13.0368C2.18326 13.3832 2.70787 13.6499 3.26917 13.854C4.4 14.2652 5.89597 14.5 7.5 14.5C8.3548 14.5 9.17891 14.4333 9.93343 14.3088C9.95695 14.3049 9.96871 14.303 9.97764 14.2971C9.98548 14.2919 9.99176 14.2845 9.99561 14.2759C10 14.2661 10 14.2541 10 14.2301V13.8516C10 13.7955 10.0455 13.75 10.1016 13.75C10.1412 13.75 10.177 13.7731 10.1949 13.8085C10.3431 14.1029 10.5588 14.3463 10.7803 14.5368C11.1833 14.8832 11.7079 15.1499 12.2692 15.354C13.4 15.7652 14.896 16 16.5 16C18.104 16 19.6 15.7652 20.7308 15.354C21.2921 15.1499 21.8167 14.8832 22.2197 14.5368C22.6194 14.1931 23 13.6772 23 13V11C23 10.3228 22.6194 9.80688 22.2197 9.46322C21.8167 9.11678 21.2921 8.8501 20.7308 8.64599C19.6 8.23478 18.104 8 16.5 8C15.62 8 14.7725 8.07067 14 8.20236Z" fill="#801ED7"/>
<path d="M22.8026 16C22.7356 16 22.6737 16.0343 22.6347 16.0887C22.5109 16.261 22.3666 16.4105 22.2197 16.5368C21.8167 16.8832 21.2921 17.1499 20.7308 17.354C19.6 17.7652 18.104 18 16.5 18C14.896 18 13.4 17.7652 12.2692 17.354C11.7079 17.1499 11.1833 16.8832 10.7803 16.5368C10.6334 16.4105 10.4891 16.261 10.3653 16.0887C10.3263 16.0343 10.2644 16 10.1974 16C10.0884 16 10 16.0884 10 16.1974V16.2976C9.22749 16.4293 8.38001 16.5 7.5 16.5C5.89597 16.5 4.4 16.2652 3.26917 15.854C2.70787 15.6499 2.18326 15.3832 1.78029 15.0368C1.63341 14.9105 1.48911 14.761 1.36533 14.5887C1.32625 14.5343 1.26436 14.5 1.1974 14.5C1.08838 14.5 1 14.5884 1 14.6974V17C1 17.6772 1.38057 18.1931 1.78029 18.5368C2.18326 18.8832 2.70787 19.1499 3.26917 19.354C4.4 19.7652 5.89597 20 7.5 20C8.44931 20 9.35799 19.9178 10.1744 19.7666C10.3228 20.0799 10.5483 20.3374 10.7803 20.5368C11.1833 20.8832 11.7079 21.1499 12.2692 21.354C13.4 21.7652 14.896 22 16.5 22C18.104 22 19.6 21.7652 20.7308 21.354C21.2921 21.1499 21.8167 20.8832 22.2197 20.5368C22.6194 20.1931 23 19.6772 23 19V16.1974C23 16.0884 22.9116 16 22.8026 16Z" fill="#801ED7"/>
</svg>
